X:2
T:Lichtmann 2
C:F. J. Haydn
M:2/4
L:1/8
Q:"Andante tranquillo" 1/4=63
K:C
"_mp legato"
(E3/2F/) EE|F2 E2|D2 C2|D3/2E/ (F/D/)(E/C/)|(E2D/)B,/C/D/|(E3/2F/) EE|
F2 E2|D2 C2|(D3/E/) CB,|(D2 C2)||(G3/2A/) GG|(A3/B/) AA|
(B3/c/) BB|cd e2||(f3/g/) ff|(e3/f/) ee|(d3/e/) dc|
(c2B2)||(E3/F/) EE|F2 E2|D2C2|(D3/E/) CB,|(E3/F/) GG|
(F3/E/) (F/E/)F/D/|(E3/F/) GG|(F3/E/) (F/E/)F/D/|E2C2|E2G2|c4|]

